dist/svgs/crypto-icons/icons/neu.svg

<?xml version="1.0" encoding="UTF-8" standalone="yes"?>
<svg xmlns="http://www.w3.org/2000/svg" xmlns:xlink="http://www.w3.org/1999/xlink" width="512px" height="512px" viewBox="0 0 384 384" version="1.1">
  <g id="surface1">
    <path style=" stroke:none;fill-rule:nonzero;fill:rgb(0%,0%,0%);fill-opacity:1;" d="M 380.875 174.148438 C 374.066406 148.484375 356.949219 128.230469 340.195312 117.40625 C 323.4375 106.585938 296.894531 101 296.894531 101 C 296.894531 101 297.25 88.601562 292.882812 77.953125 C 288.519531 67.304688 278.21875 57.527344 278.21875 57.527344 C 278.21875 57.527344 256.914062 64.507812 245.566406 83.191406 C 234.222656 101.871094 237.886719 124.566406 241.726562 133.296875 C 245.566406 142.027344 256.21875 152.675781 256.21875 152.675781 C 256.21875 152.675781 256.519531 158.566406 254.949219 159.878906 C 253.378906 161.183594 235.441406 169.304688 208.597656 171.136719 C 181.753906 172.972656 155.4375 185.933594 142.34375 196.539062 C 129.25 207.148438 112.355469 230.976562 112.355469 230.976562 C 112.355469 230.976562 120.476562 209.636719 142.34375 188.160156 C 164.210938 166.683594 183.980469 159.742188 193.410156 130.152344 C 202.835938 100.558594 201.527344 71.882812 186.074219 47.921875 C 170.628906 23.960938 142.738281 0.128906 99.53125 0 C 56.316406 -0.128906 28.953125 27.628906 21.09375 37.316406 C 13.238281 47.003906 -0.507812 71.230469 0.015625 94.40625 C 0.539062 117.582031 11.277344 139.582031 11.277344 139.582031 C 11.277344 139.582031 10.058594 116.015625 24.722656 102.046875 C 39.382812 88.078125 68.714844 88.078125 83.03125 104.140625 C 97.347656 120.207031 96.304688 138.359375 88.269531 153.023438 C 80.238281 167.691406 51.609375 188.988281 39.734375 229.492188 C 27.863281 269.996094 39.347656 304.039062 52.675781 320.277344 C 66.007812 336.515625 91.019531 349.609375 106.335938 351.570312 C 121.660156 353.535156 122.050781 352.621094 123.492188 351.179688 C 124.933594 349.742188 121.394531 345.15625 119.824219 339.132812 C 118.253906 333.109375 117.601562 328.660156 117.601562 328.660156 C 117.601562 328.660156 124.933594 351.574219 144.96875 365.714844 C 165 379.855469 187.652344 383.785156 202.1875 383.785156 L 339.675781 383.785156 L 339.675781 369.511719 C 339.675781 363.308594 333.472656 357.117188 327.625 357.117188 C 321.777344 357.117188 269.667969 357.027344 266.695312 357.027344 C 263.726562 357.027344 261.894531 355.195312 262.851562 353.539062 C 263.816406 351.878906 285.03125 327.613281 280.488281 294.792969 C 275.949219 261.96875 257.96875 243.675781 236.144531 231.589844 C 236.144531 231.589844 254.476562 236.484375 271.234375 253.589844 C 287.996094 270.699219 292.007812 283.792969 293.929688 293.570312 C 295.851562 303.34375 295.328125 320.457031 296.898438 320.976562 C 298.472656 321.5 311.386719 294.089844 311.738281 270.871094 C 312.085938 247.652344 303.359375 215.355469 304.058594 215.007812 C 304.753906 214.65625 322.039062 224.960938 342.640625 226.355469 C 363.246094 227.75 380.003906 223.035156 380.003906 223.035156 C 380.003906 223.035156 387.683594 199.816406 380.875 174.148438 Z M 353.515625 174.210938 C 353.496094 167.890625 348.371094 162.773438 342.050781 162.773438 C 335.714844 162.773438 330.582031 167.90625 330.582031 174.242188 C 330.582031 176.453125 331.238281 178.5 332.324219 180.253906 C 325.023438 177.628906 319.800781 170.671875 319.800781 162.472656 C 319.800781 152.035156 328.265625 143.570312 338.707031 143.570312 C 349.148438 143.570312 357.613281 152.035156 357.613281 162.472656 C 357.613281 166.738281 356.171875 170.875 353.515625 174.210938 Z M 353.515625 174.210938 "/>
  </g>
</svg>

<svg xmlns="http://www.w3.org/2000/svg" viewBox="0 0 384 384"><path d="M380.875 174.148c-6.809-25.664-23.926-45.918-40.68-56.742-16.757-10.82-43.3-16.406-43.3-16.406s.355-12.398-4.012-23.047c-4.363-10.648-14.664-20.426-14.664-20.426s-21.305 6.98-32.653 25.664c-11.343 18.68-7.68 41.375-3.84 50.106 3.84 8.73 14.493 19.379 14.493 19.379s.3 5.89-1.27 7.203c-1.57 1.305-19.508 9.426-46.351 11.258-26.844 1.836-53.16 14.797-66.254 25.402-13.094 10.61-29.989 34.438-29.989 34.438s8.122-21.34 29.989-42.817c21.867-21.476 41.636-28.418 51.066-58.008 9.426-29.593 8.117-58.27-7.336-82.23C170.63 23.96 142.738.129 99.531 0 56.316-.129 28.953 27.629 21.094 37.316 13.238 47.004-.508 71.23.016 94.406c.523 23.176 11.261 45.176 11.261 45.176s-1.218-23.566 13.446-37.535c14.66-13.969 43.992-13.969 58.308 2.094 14.317 16.066 13.274 34.218 5.239 48.882-8.032 14.668-36.66 35.965-48.536 76.47-11.87 40.503-.386 74.546 12.942 90.784 13.332 16.239 38.344 29.332 53.66 31.293 15.324 1.965 15.715 1.051 17.156-.39 1.442-1.438-2.097-6.024-3.668-12.047-1.57-6.024-2.222-10.473-2.222-10.473s7.332 22.914 27.367 37.055c20.031 14.14 42.683 18.07 57.219 18.07h137.488v-14.273c0-6.203-6.203-12.395-12.051-12.395s-57.957-.09-60.93-.09c-2.968 0-4.8-1.832-3.843-3.488.964-1.66 22.18-25.926 17.636-58.746-4.539-32.824-22.52-51.117-44.343-63.203 0 0 18.332 4.894 35.09 22 16.761 17.11 20.773 30.203 22.695 39.98 1.922 9.774 1.398 26.887 2.968 27.407 1.575.523 14.489-26.887 14.84-50.106.348-23.219-8.379-55.516-7.68-55.863.696-.352 17.981 9.953 38.583 11.347 20.605 1.395 37.363-3.32 37.363-3.32s7.68-23.219.871-48.887zm-27.36.063c-.019-6.32-5.144-11.438-11.464-11.438-6.336 0-11.469 5.133-11.469 11.47 0 2.21.656 4.257 1.742 6.01-7.3-2.624-12.523-9.581-12.523-17.78 0-10.438 8.465-18.903 18.906-18.903 10.441 0 18.906 8.465 18.906 18.903 0 4.265-1.441 8.402-4.097 11.738zm0 0"/></svg>
